cps (115/240)

d1
$ stack [
every 7 (0.5 ~>)
$ every 2 (|*| speed "1 1 0.75 1 1 1.5")
$ slowspread ($) [
every 3 (rev) . fit' 1 4 (run 4) "0 1 2 3",
every 5 (stut 4 0.5 0.5) . fit' 1 4 (run 4) "0 2 1 3"
]
$ striate 16 $ sound "factory115:4" # gain "0.35" # speed "1"
]
