d1 $ stack [
density 2 $ striate 8 $ sound "factory115:3" # gain "0.2" # speed "2",
density 2 $ striate 4 $ sound "factory115:3" # gain "0.35" # speed "1",
density 1 $ striate 4 $ sound "factory115:3" # gain "0.2" # speed "0.5"
]

d1 $ silence

d1 $ zoom (0.25, 0.5) $ striate 4 $ sound "factory115:1"

cps 0.479166
